X: 100249
M: C|
L: 1/8
K: E
(BG) |\
E2(GB) egfe | defg a2(ga) | bgaf gefd | Bagf ecBA |
|: (ude) |\
fB ((3BAB) gB ((3BAB) | (bB)(gB) fB ((3BAB) | (ef)ga bgaf | gefd BcBA |


